contributed-vectors/tymebank.svg

<svg xmlns="http://www.w3.org/2000/svg" viewBox="0 0 160.68 167.33"><defs><linearGradient id="a" x1="15.66" x2="176.34" y1="34.8" y2="34.8" gradientUnits="userSpaceOnUse"><stop offset="0" stop-color="#c39a54"/><stop offset=".22" stop-color="#c79f57"/><stop offset=".49" stop-color="#d2ad61"/><stop offset=".77" stop-color="#e5c571"/><stop offset="1" stop-color="#f9de81"/></linearGradient><linearGradient id="b" x1="15.66" x2="176.34" y1="63" y2="63" gradientUnits="userSpaceOnUse"><stop offset="0" stop-color="#c39a54"/><stop offset=".24" stop-color="#cca55b"/><stop offset=".65" stop-color="#e2c16e"/><stop offset="1" stop-color="#f9de81"/></linearGradient><linearGradient id="c" x1="15.66" x2="176.34" y1="96.26" y2="96.26" gradientUnits="userSpaceOnUse"><stop offset="0" stop-color="#c39a54"/><stop offset=".26" stop-color="#d2ac60"/><stop offset="1" stop-color="#f9de81"/></linearGradient><linearGradient id="d" x1="15.66" x2="176.34" y1="129.33" y2="129.33" gradientUnits="userSpaceOnUse"><stop offset="0" stop-color="#c39a54"/><stop offset=".03" stop-color="#c59d56"/><stop offset=".44" stop-color="#e1c06d"/><stop offset=".78" stop-color="#f3d67c"/><stop offset="1" stop-color="#f9de81"/></linearGradient><linearGradient id="e" x1="15.66" x2="176.34" y1="157.18" y2="157.18" gradientUnits="userSpaceOnUse"><stop offset="0" stop-color="#c39a54"/><stop offset=".01" stop-color="#c49b55"/><stop offset=".26" stop-color="#dbb868"/><stop offset=".52" stop-color="#eccd76"/><stop offset=".76" stop-color="#f6da7e"/><stop offset="1" stop-color="#f9de81"/></linearGradient></defs><path fill="url(#a)" d="M126.57 12.36 16.71 35a1.31 1.31 0 0 0-1.05 1.28v16a1.31 1.31 0 0 0 1.53 1.29l100.14-17.42a1.28 1.28 0 0 1 .67.06l56.58 21a1.3 1.3 0 0 0 1.76-1.21V45.05a1.31 1.31 0 0 0-.59-1.1l-48.2-31.4a1.3 1.3 0 0 0-.98-.19Z" transform="translate(-15.66 -12.34)"/><path fill="url(#b)" d="M15.66 61.83v16.7a1.32 1.32 0 0 0 1.42 1.31l86.32-7.33a1.13 1.13 0 0 1 .26 0l71.23 7.81a1.31 1.31 0 0 0 1.45-1.3V64.45a1.31 1.31 0 0 0-1-1.26l-61.06-17.46a1.32 1.32 0 0 0-.56 0L16.77 60.54a1.31 1.31 0 0 0-1.11 1.29Z" transform="translate(-15.66 -12.34)"/><path fill="url(#c)" d="M15.66 87.48v17.19a1.3 1.3 0 0 0 1.22 1.3L87 111h.16l88-4.39a1.31 1.31 0 0 0 1.24-1.3v-17.7a1.31 1.31 0 0 0-1.23-1.31l-75.62-4.76h-.16L16.9 86.17a1.31 1.31 0 0 0-1.24 1.31Z" transform="translate(-15.66 -12.34)"/><path fill="url(#d)" d="m16.57 128.57 56 18a1.28 1.28 0 0 0 .58 0l102-14.33a1.31 1.31 0 0 0 1.13-1.3V114a1.31 1.31 0 0 0-1.41-1.3l-91.77 7.06a1.13 1.13 0 0 1-.26 0l-65.72-7.67a1.31 1.31 0 0 0-1.46 1.3v14a1.31 1.31 0 0 0 .91 1.18Z" transform="translate(-15.66 -12.34)"/><path fill="url(#e)" d="m16.19 147.27 43.14 32.13a1.29 1.29 0 0 0 1 .24l114.92-21.43a1.32 1.32 0 0 0 1.07-1.29v-16.11a1.31 1.31 0 0 0-1.51-1.29l-105.49 16.6a1.39 1.39 0 0 1-.7-.09l-51.15-21.24a1.31 1.31 0 0 0-1.81 1.21v10.22a1.33 1.33 0 0 0 .53 1.05Z" transform="translate(-15.66 -12.34)"/></svg>

<svg xmlns="http://www.w3.org/2000/svg" xmlns:xlink="http://www.w3.org/1999/xlink" viewBox="0 0 160.68 167.33"><title>TymeBank</title><defs><linearGradient id="a" x1="15.66" y1="34.8" x2="176.34" y2="34.8" gradientUnits="userSpaceOnUse"><stop offset="0" stop-color="#c39a54"/><stop offset="0.22" stop-color="#c79f57"/><stop offset="0.49" stop-color="#d2ad61"/><stop offset="0.77" stop-color="#e5c571"/><stop offset="1" stop-color="#f9de81"/></linearGradient><linearGradient id="b" x1="15.66" y1="63" x2="176.34" y2="63" gradientUnits="userSpaceOnUse"><stop offset="0" stop-color="#c39a54"/><stop offset="0.24" stop-color="#cca55b"/><stop offset="0.65" stop-color="#e2c16e"/><stop offset="1" stop-color="#f9de81"/></linearGradient><linearGradient id="c" x1="15.66" y1="96.26" x2="176.34" y2="96.26" gradientUnits="userSpaceOnUse"><stop offset="0" stop-color="#c39a54"/><stop offset="0.26" stop-color="#d2ac60"/><stop offset="1" stop-color="#f9de81"/></linearGradient><linearGradient id="d" x1="15.66" y1="129.33" x2="176.34" y2="129.33" gradientUnits="userSpaceOnUse"><stop offset="0" stop-color="#c39a54"/><stop offset="0.03" stop-color="#c59d56"/><stop offset="0.44" stop-color="#e1c06d"/><stop offset="0.78" stop-color="#f3d67c"/><stop offset="1" stop-color="#f9de81"/></linearGradient><linearGradient id="e" x1="15.66" y1="157.18" x2="176.34" y2="157.18" gradientUnits="userSpaceOnUse"><stop offset="0" stop-color="#c39a54"/><stop offset="0.01" stop-color="#c49b55"/><stop offset="0.26" stop-color="#dbb868"/><stop offset="0.52" stop-color="#eccd76"/><stop offset="0.76" stop-color="#f6da7e"/><stop offset="1" stop-color="#f9de81"/></linearGradient></defs><path d="M126.57,12.36,16.71,35a1.31,1.31,0,0,0-1.05,1.28v16a1.31,1.31,0,0,0,1.53,1.29L117.33,36.15a1.28,1.28,0,0,1,.67.06l56.58,21A1.3,1.3,0,0,0,176.34,56V45.05a1.31,1.31,0,0,0-.59-1.1l-48.2-31.4A1.3,1.3,0,0,0,126.57,12.36Z" transform="translate(-15.66 -12.34)" fill="url(#a)"/><path d="M15.66,61.83v16.7a1.32,1.32,0,0,0,1.42,1.31l86.32-7.33a1.13,1.13,0,0,1,.26,0l71.23,7.81a1.31,1.31,0,0,0,1.45-1.3V64.45a1.31,1.31,0,0,0-1-1.26L114.28,45.73a1.32,1.32,0,0,0-.56,0L16.77,60.54A1.31,1.31,0,0,0,15.66,61.83Z" transform="translate(-15.66 -12.34)" fill="url(#b)"/><path d="M15.66,87.48v17.19a1.3,1.3,0,0,0,1.22,1.3L87,111h.16l88-4.39a1.31,1.31,0,0,0,1.24-1.3V87.61a1.31,1.31,0,0,0-1.23-1.31L99.55,81.54h-.16L16.9,86.17A1.31,1.31,0,0,0,15.66,87.48Z" transform="translate(-15.66 -12.34)" fill="url(#c)"/><path d="M16.57,128.57l56,18a1.28,1.28,0,0,0,.58,0l102-14.33a1.31,1.31,0,0,0,1.13-1.3V114a1.31,1.31,0,0,0-1.41-1.3L83.1,119.76a1.13,1.13,0,0,1-.26,0l-65.72-7.67a1.31,1.31,0,0,0-1.46,1.3v14A1.31,1.31,0,0,0,16.57,128.57Z" transform="translate(-15.66 -12.34)" fill="url(#d)"/><path d="M16.19,147.27,59.33,179.4a1.29,1.29,0,0,0,1,.24l114.92-21.43a1.32,1.32,0,0,0,1.07-1.29V140.81a1.31,1.31,0,0,0-1.51-1.29L69.32,156.12a1.39,1.39,0,0,1-.7-.09L17.47,134.79A1.31,1.31,0,0,0,15.66,136v10.22A1.33,1.33,0,0,0,16.19,147.27Z" transform="translate(-15.66 -12.34)" fill="url(#e)"/></svg>
